X:1
T:Musical Offering Sonata II (A = 415 Hz)
T:BWV 1079
T:J. S. Bach
%%score { 1 | 2 } { 3 | 4 }
L:1/8
Q:1/4=132
M:2/4
K:D
V:1 treble nm="Harp"
V:2 treble 
V:3 treble nm="Harp"
V:4 bass 
V:1
"^Allegro" z | z4 | z4 | z4 | z4 | z4 | z4 | z4 | z4 | z4 | z2 z B | f3/2^g/4a/4 g3/2a/4b/4 | %12
 a/^g/f/=f/ ^f/c'/a/f/ | =f/c/f/^g/ ^f/=f/^f/a/ | ^g/f/=f/^d/ c/g/a/f/ | f/=f/^f/d'/ d'/c'/d'/e/ | %16
 e/^d/e/c'/ c'/b/c'/=d/ | d/c/d/b/ b/^a/b/d/ |{d} c2 z c | %19
 d'/4c'/4d'/4c'/4d'/4c'/4b/4a/4 c'/4b/4c'/4b/4c'/4b/4a/4^g/4 | a/b/c'/a/ f/^g/a/f/ | %21
 g/f/g/B/ A/^G/A/g/ | f/g/a/f/ d/e/f/d/ | e/d/e/G/ F/^E/F/e/ | d/e/f/d/ Bb- | ba/g/ a2- | %26
 aB/d/ g2- | gf/e/ f2- | fG/B/ e2- | ed/c/ d2- | dg/e/{d} c2- | cB z d- | d/c/d/b/ d/c/d/b/ | %33
 e/4d/4e/4d/4c z c | d/f/c'/b/ e/4d/4e/4d/4e/4d/4c/4B/4 | c/e/b/a/ d/4c/4d/4c/4d/4c/4B/4A/4 | %36
 B/d/a/^g/ c/4B/4c/4B/4c/4B/4A/4^G/4 | A/c/^g/f/ B/4A/4B/4A/4B/4A/4^G/4F/4 | f4- | f4- | f4- | %41
 f/=f/^g/^f/ =f/d/c/B/ | A/c/=f/^f/ ^G/B/^d/e/ | F/A/c/d/ =F/d/c/B/ | A/f/d/B/ B/4A/4B/4A/4G/F/ | %45
 F/C/F/^G/ A/F/A/B/ | c4- | c/B/A/^G/ F z | z c'2 ^b | c'^g a2- | a^g z =g- | gf z f- | %52
 f=f z/ c/d/^f/ | b/^g/^e/b/ a/f/g/e/ | f/c/ f2 ^e | f2 z F- | FE z A- | A/G/A/f/ f/e/f/A/ | %58
 G2 z e- | e/d/e/c'/ c'/b/c'/e/ | d/c/d/b/ b/^a/b/d/ | =c/B/c/a/ a/g/a/c/ | B/A/B/g/ g/f/g/B/ | %63
 A/G/A/f/ f/e/f/A/ |{A} G2 z e- | ed z d- | dc z F | B3/2c/4d/4 c3/2d/4e/4 | d/c/B/^A/ B/f/d/B/ | %69
 ^A/F/A/c/ B/A/B/d/ | c/B/^A/^G/ F/c/d/A/ | B/^A/B/g/ g/f/g/=A/ | A/^G/A/f/ f/e/f/=G/ | %73
 G/F/G/e/ e/^d/e/G/ |{G} F2 z F | g/4f/4g/4f/4g/4f/4e/4d/4 f/4e/4f/4e/4f/4e/4d/4c/4 | d/e/f/d/ B2 | %77
 z2 e/a/d'/c'/ | z2 d/f/c'/b/ | z2 c/e/b/^a/ | z2 z/ B/c/d/ | E/G/d/c/ F/A/e/^d/ | %82
 e/f/g/e/ B/c/d/B/ | ^G/B/d/c/ B/d/f/^e/ | fg z c'- | c'/d'<ec'/d- | d/b/c z ^a | bB F^A | %88
 !fermata!B2 z2 | z z2 A | b/4a/4b/4a/4b/4a/4g/4f/4 a/4g/4a/4g/4a/4g/4f/4e/4 | f A2 B | %92
 A/G/F/G/ E/F/G/A/ | B2 z B | c'/4b/4c'/4b/4c'/4b/4a/4g/4 b/4a/4b/4a/4b/4a/4g/4f/4 | g B2 =c | %96
 B/A/G/A/ F/G/A/B/ | =c/B/c/a/ a/g/a/c/ | B/A/B/g/ g/f/g/B/ | A/G/A/f/ f/e/f/A/ | G/F/E z ^G/A/ | %101
 B/A/B/^g/ g/f/g/B/ | A/^G/A/f/ f/=f/^f/A/ | ^G/F/G/=f/ f/^d/f/G/ | F2 z d- | dc z c- | cB z B- | %107
 B/d/a/^g/ ^G/B/d/c/ | A/c/^g/f/ F/A/c/B/ | ^G/B/f/^e/ ^E/G/B/A/ | F/A/c/d/ ^G/B/f/^e/ | %111
 A/c/^e/f/ B/d/a/^g/ | ^g4- | g/^e/f z c' | c3/2^d/4e/4 d3/2e/4f/4 | e/B/F/G/ z b | %116
 B3/2c/4d/4 c3/2d/4e/4 | d/B/d/f/ e/B/e/g/ | f2 z2 | z f2 e- | e/d/c/B/ ^A/^G/F | z d2 c | %122
 z =c2 B | z2 g2- | g/e/b/^a/ z/ f/^A/B/ | z z2 F | B3/2A/4G/4 A3/2G/4F/4 | G/4A/4B3/2 z B | %128
 e3/2d/4c/4 d3/2c/4B/4 | c/4d/4e3/2 z e | a3/2g/4f/4 g3/2f/4e/4 | f/4g/4a3/2 z a | %132
 d'3/2=c'/4b/4 c'3/2b/4a/4 | b/g/c/d/ a/f/B/=c/ | B/e/ g2 f | g3/2f/4e/4 f3/2e/4^d/4 | %136
 e/B/F/G/ e2- | e/^B/^G/A/ d2- | d/c/d/b/ b/a/b/d/ | =c/B/c/a/ a/^g/a/c/ | B/A/B/^g/ g/f/g/B/ | %141
 A/^G/A/B/ =c/d/e/f/ | g/f/g/e/ c/B/c/g/ | f/e/f/d/ B/^A/B/f/ | e/d/e/c/ ^A/^G/A/e/ | d/c/d Ed' | %146
 c'/b/c' Dc' | b/^a/b Cb | b/4^a/4b/4a/4b/4a/4b/4a/4 b/4a/4b/4a/4b/4a/4b/4a/4 | %149
 c'/4b/4c'/4b/4c'/4b/4c'/4b/4 c'/4b/4c'/4b/4c'/4b/4c'/4b/4 | %150
 a/4g/4a/4g/4a/4g/4a/4g/4 a/4g/4a/4g/4a/4g/4a/4g/4 | f4- | f/d/^A/B/ c/e/b/^a/ | %153
 d/B/F/G/ A/=c/g/f/ | B/G/^D/E/ F/A/e/^d/ | a/4g/4a/4g/4a/4g/4f/4e/4 f/4e/4f/4e/4f/4e/4e/4=c/4 | %156
 =c/g/^d/e/ G/e/B/c/ | E2- E/e/c/d/ | %158
[Q:1/4=72]"^Adagio" E/4D/4E/4D/4E/4D/4E/4D/4 E/4D/4E/4D/4E/4D/4E/4D/4 | %159
 C2[Q:1/4=132]"^Allegro" z2 | z4 | B2 d2 | f2 g2 | ^A2 z f | =f2 e2 | ^d2 =d2- | dc =cB | %167
 ^A^G/F/ Be | e/4d/4e/4d/4e/4d/4e/4d/4 d/4c/4d/4c/4d/4c/4d/4c/4 | B2 z2 | z4 | z2 z c | %172
 f3/2^g/4a/4 g3/2a/4b/4 | a/^g/f/=f/ ^f/c'/a/f/ | =f/c/f/^g/ ^f/=f/^f/a/ | ^g/f/=f/^d/ c/g/a/f/ | %176
 f/=f/^f/d'/ d'/c'/d'/e/ | e/^d/e/c'/ c'/b/c'/=d/ | d/c/d/b/ b/^a/b/d/ |{d} c2 z c | %180
 d'/4c'/4d'/4c'/4d'/4c'/4b/4a/4 c'/4b/4c'/4b/4c'/4b/4a/4^g/4 | a/b/c'/a/ f/^g/a/f/ | %182
 g/f/g/B/ A/^G/A/g/ | f/g/a/f/ d/e/f/d/ | e/d/e/G/ F/^E/F/e/ | d/e/f/d/ Bb- | ba/g/ a2- | %187
 aB/d/ g2- | gf/e/ f2- | fG/B/ e2- | ed/c/ d2- | dg/e/{d} c2- | cB z d- | d/c/d/b/ d/c/d/b/ | %194
 e/4d/4e/4d/4c z c | d/f/c'/b/ e/4d/4e/4d/4e/4d/4c/4B/4 | c/e/b/a/ d/4c/4d/4c/4d/4c/4B/4A/4 | %197
 B/d/a/^g/ c/4B/4c/4B/4c/4B/4A/4^G/4 | A/c/^g/f/ B/4A/4B/4A/4B/4A/4^G/4F/4 | f4- | f4- | f4- | %202
 f/^e/^g/f/ e/d/c/B/ | A/c/=f/^f/ ^G/B/^d/e/ | F/A/c/d/ =F/d/c/B/ | A/f/d/B/ B/4A/4B/4A/4G/F/ | %206
 F/C/F/^G/ A/F/A/B/ | c4- | c/B/A/^G/ F z | z c'2 ^b | c'^g a2- | a^g z =g- | gf z f- | %213
 f=f z/ c/d/^f/ | b/^g/=f/b/ a/^f/g/=f/ | f/c/ f2 ^e | f2 z F- | FE z A- | A/G/A/f/ f/e/f/A/ | %219
 G2 z e- | e/d/e/c'/ c'/b/c'/e/ | d/c/d/b/ b/^a/b/d/ | =c/B/c/a/ a/g/a/c/ | B/A/B/g/ g/f/g/B/ | %224
 A/G/A/f/ f/e/f/A/ |{A} G2 z e- | ed z d- | dc z F | B3/2c/4d/4 c3/2d/4e/4 | d/c/B/^A/ B/f/d/B/ | %230
 ^A/F/A/c/ B/A/B/d/ | c/B/^A/^G/ F/c/d/A/ | B/^A/B/g/ g/f/g/=A/ | A/^G/A/f/ f/e/f/=G/ | %234
 G/F/G/e/ e/^d/e/G/ |{G} F2 z F | g/4f/4g/4f/4g/4f/4e/4d/4 f/4e/4f/4e/4f/4e/4d/4c/4 | d/e/f/d/ B2 | %238
 z2 e/a/d'/c'/ | z2 d/f/c'/b/ | z2 c/e/b/^a/ | z2 z/ B/c/d/ | E/G/d/c/ F/A/e/^d/ | %243
 e/f/g/e/ B/c/d/B/ | ^G/B/d/c/ B/d/f/=f/ | fg z c'- | c'/d'<ec'/d- | d/b/c z ^a | bB F^A | %249
 !fermata!B2 z2 |] %250
V:2
 F | B3/2c/4d/4 c3/2d/4e/4 | d/c/B/^A/ B/f/d/B/ | ^A/F/A/c/ B/A/B/d/ | c/B/^A/^G/ F/c/d/A/ | %5
 B/^A/B/g/ g/f/g/=A/ | A/^G/A/f/ f/^e/f/=G/ | G/F/G/e/ e/^d/e/G/ |{G} F2 z F | %9
 g/4f/4g/4f/4g/4f/4e/4d/4 f/4e/4f/4e/4f/4e/4d/4c/4 | d/e/f/d/ B/c/d/B/ | c F2 ^E | FC c2- | %13
 cC c2- | c^g =fc- | cF B/A/B- | BE A/^G/A- | AF DG | =F/C/F/^G/ B/^e/^g/B/ | A/c/ f2 =f | fF f2- | %21
 fe/d/ e2- | eF/A/ d2- | dc/B/ c2- | cD/F/ B/c/d/B/ | =c/B/c/E/ D/C/D/c/ | B/=c/d/B/ G/A/B/G/ | %27
 A/G/A/=C/ B,/^A,/B,/A/ | G/A/B/G/ Eg | f3 B | e2- e/d/c/e/ | d/e/f/d/ BB- | B/^A/B/d/ B/A/B/d/ | %33
 c/4B/4c/4B/4^A z2 | z2 B,/E/A/^G/ | z2 A,/C/^G/F/ | z2 ^G,/C/F/=F/ | F,2 z/ F/^G/A/ | %38
 B,/D/A/^G/ C/E/B/^A/ | B/c/d/B/ F/^G/A/F/ | ^D/F/A/^G/ F/A/c/=c/ | c b2 c- | c/a/B- B/^g/A- | %43
 A/f/ ^G2 =f | f>^g f/4=f/4^f/4=f/4^f/4=f/4^f/ | f2 z C | F3/2^G/4A/4 G3/2A/4B/4 | %47
 A/^G/F/=F/ ^F/c/A/F/ | ^E/C/E/^G/ F/E/F/A/ | ^G/F/=F/^D/ C/G/A/F/ | F/=F/^F/d/ d/c/d/E/ | %51
 E/^D/E/c/ c/=c/^c/=D/ | D/C/D/B/ B/^A/B/D/ |{D} C2 z C | %54
 d/4c/4d/4c/4d/4c/4B/4A/4 c/4B/4c/4B/4c/4B/4A/4^G/4 | A/B/c/A/ F/^G/A/F/ | G/F/G/e/ e/d/e/G/ | %57
 F2 z B- | B/^A/B/g/ g/f/g/B/ |{B} ^A2 z c- | cB z B- | BA z d- | d^d eG- | GF z B- | %64
 B/A/B/e/ e/^d/e/G/ | F/E/F/d/ d/c/d/F/ | E/D/E/c/ c/B/c/E/ | D/F/ B2 ^A | B2 z2 | z f2 =f | %70
 fc d2- | dc z =c- | cB z B- | B^A z/ F/G/B/ | e/c/^A/e/ d/B/c/A/ | B/F/ B2 ^A | B2- B/A/G/F/ | %77
 G/B/f/e/ A/4G/4A/4G/4A/4G/4F/4E/4 | F/A/e/d/ G/4F/4G/4F/4G/4F/4E/4D/4 | %79
 E/G/d/c/ F/4E/4F/4E/4F/4E/4D/4C/4 | D/F/c/B/ E/4D/4E/4D/4E/4D/4C/4B,/4 | B4- | B4- | B4- | %84
 B/^A/c/B/ =A/G/F/E/ | D/F/^A/B/ C/E/^G/=A/ | B,/D/F/G/ ^A,/G/F/E/ | D/B/G/E/ E/4D/4E/4D/4C/B,/ | %88
 !fermata!B,2 z d | D3/2E/4F/4 E3/2F/4G/4 | F d2 c | d/e/f/e/ g/f/e/d/ | c2 z e | %93
 E3/2F/4G/4 F3/2G/4A/4 | G e2 ^d | e/f/g/f/ a/g/f/e/ | ^d2 z F/G/ | A/G/A/f/ f/e/f/A/ | %98
 G/F/G/e/ e/^d/e/G/ | F/E/F/^d/ d/c/d/F/ | E/^D/E/F/ G/A/B/c/ | d/c/d/b/ b/a/b/d/ | %102
 c/B/c/a/ a/^g/a/c/ | B/A/B/^g/ g/f/g/B/ | Aa ba | ^G^g ag | Ff ^gf | %107
 f/4=f/4^f/4=f/4^f/4=f/4^f/4=f/4 ^f/4=f/4^f/4=f/4^f/4=f/4^f/4=f/4 | %108
 g/4f/4g/4f/4g/4f/4g/4f/4 g/4f/4g/4f/4g/4f/4g/4f/4 | %109
 e/4d/4e/4d/4e/4d/4e/4d/4 e/4d/4e/4d/4e/4d/4e/4d/4 | c4- | c/f/b/a/ z d- | d/B/F/^E/ B/^G/D/C/ | %113
 d/4c/4d/4c/4d/4c/4B/4A/4 c/4B/4c/4B/4c/4B/4A/4^G/4 | A/c/=F/^F/ z B, | %115
 c/4B/4c/4B/4c/4B/4A/4G/4 B/4A/4B/4A/4B/4A/4G/4F/4 | G/B/f/e/ z ^A | BB, z2 | B,2 D2 | F2 G2 | %120
 ^A,2 z F | ^E2 =E2 | ^D2 =D2- | DC =CB, | ^A,^G,/F,/ B,E | %125
 E/4D/4E/4D/4E/4D/4E/4D/4 D/4C/4D/4C/4D/4C/4D/4C/4 | B,2 z ^D | E3/2F/4G/4 F3/2G/4A/4 | %128
 G/4F/4E3/2 z G | A3/2B/4c/4 B3/2c/4d/4 | c/4B/4A3/2 z c | d3/2e/4f/4 e3/2f/4g/4 | f/4e/4d3/2 z2 | %133
 z2 z D | d3/2=c/4B/4 c3/2B/4A/4 | B/G/C/D/ A/F/B,/=C/ | B,2- B,/E/A/G/ | A,2- A,/D/=F/E/ | %138
 =F/E/F/d/ d/=c/d/F/ | E/D/E/=c/ c/B/c/E/ | D/C/D/B/ B/A/B/D/ | =C/B,/A, z c/d/ | %142
 e/d/e/c/ E/D/E/e/ | d/c/d/B/ D/C/D/d/ | c/B/c/^A/ C/B,/C/c/ | B2 z G- | GF z f- | fe z E- | %148
 E/G/d/c/ C/E/G/F/ | D/F/c/B/ B,/D/F/E/ | C/E/B/^A/ ^A,/C/E/D/ | B,/D/F/G/ C/F/B/^A/ | BD GC | %153
 z B, EA, | z G, =CF, | z/ e/^A/B/ G/=c/F/G/ | G/4F/4G/4F/4G/4F/4F/4E/4 F/4E/4F/4E/4F/4E/4D/4=C/4 | %157
 =C/=c/F/G/ C/G/^A,/B,/ | C/4B,/4C/4B,/4C/4B,/4C/4B,/4 C/4B,/4C/4B,/4C/4B,/4C/4B,/4 | ^A,2 z F | %160
 B3/2c/4d/4 c3/2d/4e/4 | d/c/B/^A/ B/f/d/B/ | ^A/F/A/c/ B/A/B/d/ | c/B/^A/^G/ F/c/d/A/ | %164
 B/^A/B/g/ g/f/g/=A/ | A/^G/A/f/ f/e/f/=G/ | G/F/G/e/ e/^d/e/G/ | GF z F | %168
 g/4f/4g/4f/4g/4f/4e/4d/4 f/4e/4f/4e/4f/4e/4d/4c/4 | d/e/f/d/ B/c/d/B/ | c/B/c/b/ a/^g/a/c/ | %171
 B/A/B/a/ ^g/f/g/B/ | A/^G/ F2 =F | FC c2- | cC c2- | c^g =fc- | cF B/A/B- | BE A/^G/A- | AF DG | %179
 ^E/C/E/^G/ B/=f/^g/B/ | A/c/ f2 =f | fF f2- | fe/d/ e2- | eF/A/ d2- | dc/B/ c2- | cD/F/ B/c/d/B/ | %186
 =c/B/c/E/ D/C/D/c/ | B/=c/d/B/ G/A/B/G/ | A/G/A/=C/ B,/^A,/B,/A/ | G/A/B/G/ Eg | f3 B | %191
 e2- e/d/c/e/ | d/e/f/d/ BB- | B/^A/B/d/ B/A/B/d/ | c/4B/4c/4B/4^A z2 | z2 B,/E/A/^G/ | %196
 z2 A,/C/^G/F/ | z2 ^G,/C/F/=F/ | F,2 z/ F/^G/A/ | B,/D/A/^G/ C/E/B/^A/ | B/c/d/B/ F/^G/A/F/ | %201
 ^D/F/A/^G/ F/A/c/=c/ | c b2 c- | c/a<B ^g/A- | A/f/ ^G2 =f | f>^g f/4=f/4^f/4=f/4^f/4=f/4^f/ | %206
 f2 z C | F3/2^G/4A/4 G3/2A/4B/4 | A/^G/F/=F/ ^F/c/A/F/ | =F/C/F/^G/ ^F/=F/^F/A/ | %210
 ^G/F/=F/^D/ C/G/A/F/ | F/=F/^F/d/ d/c/d/E/ | E/^D/E/c/ c/=c/^c/=D/ | D/C/D/B/ B/^A/B/D/ | %214
{D} C2 z C | d/4c/4d/4c/4d/4c/4B/4A/4 c/4B/4c/4B/4c/4B/4A/4^G/4 | A/B/c/A/ F/^G/A/F/ | %217
 G/F/G/e/ e/d/e/G/ | F2 z B- | B/^A/B/g/ g/f/g/B/ |{B} ^A2 z c- | cB z B- | BA z d- | d^d eG- | %224
 GF z B- | B/A/B/e/ e/^d/e/G/ | F/E/F/d/ d/c/d/F/ | E/D/E/c/ c/B/c/E/ | D/F/ B2 ^A | B2 z2 | %230
 z f2 =f | fc d2- | dc z =c- | cB z B- | B^A z/ F/G/B/ | e/c/^A/e/ d/B/c/A/ | B/F/ B2 ^A | %237
 B2- B/A/G/F/ | G/B/f/e/ A/4G/4A/4G/4A/4G/4F/4E/4 | F/A/e/d/ G/4F/4G/4F/4G/4F/4E/4D/4 | %240
 E/G/d/c/ F/4E/4F/4E/4F/4E/4D/4C/4 | D/F/c/B/ E/4D/4E/4D/4E/4D/4C/4B,/4 | B4- | B4- | B4- | %245
 B/^A/c/B/ =A/G/F/E/ | D/F/^A/B/ C/E/^G/=A/ | B,/D/F/G/ ^A,/G/F/E/ | D/B/G/E/ E/4D/4E/4D/4C/B,/ | %249
 !fermata!B,2 z2 |] %250
V:3
 z | z [DFB] [CFc][CF^A] | [DFB][EF^A] [DFB]2 | [CF^A]2 [DFB]2 | [CF^A]2 z [DAd] | [DBd]2 [GBc]2 | %6
 [FAc]2 [FAB]2 | [EGB]2 [EGc]2 | [EFc]2 [E^Ac][CAc] | [DFB][DGB] [EGB][EF^A] | %10
 [DFB][CEB] [B,FB][D=FB] | [CFA][DFA] [DF^G][C=FG] | [CFA][C=FB] [C^FA][FAc] | %13
 [=F^Gc]2 [^FAc][Acf] | [^Gc=f]2 z [Acf] | [Acf]2 z [^GBf] | [^GBe]2 z [FAe] | [FAd]2 z [GBd] | %18
 [=F^Gc]2 [GBc]2 | [FAc]2 [FBd][=FBc] | [FAc]2 [Adf]2 | [Gdf]2 [GAe]2 | [FAe]2 [FBd]2 | %23
 [EBd]2 [EFc]2 | [DFc]2 [DGB]2 | [GB=c]2 [DAc]2 | [DAB]2 [GBe]2 | [GAe]2 [FBf]2 | %28
 [GBf][GBe] [Gce]2 | [Fce]2 [FBd]2 | [EGd][EGc] [E^Ac]2 | [DFc][DFB] [DGB]2 | [D^GB]2 [DGB]2 | %33
 [DFB][CF^A] [FAc]2 | [Dcd]2 [EBd]2 | [EBc]2 [FAc]2 | [B,AB]2 [C^GB]2 | [C^GA]2 [DFA]2 | %38
 [DFB]2 [CF^A]2 | [B,FB]3 [CFA] | [^DFA]2 [=CF^G]2 | [CF^G][C=FG] z [GBc] | %42
 [FAc][FAB] [E^GB][EGA] | [DFA][DF^G] [C=FB]2 | [FA][D^GA] [C=FG]2 | [A,F]2 z2 | %46
 z [CFA] [C^Gc][=FGc] | [FAc]4 | [=F^Gc]2 [^Fc][FA=c] | [C^Gc]2 z [C=FA] | [^DFA][DF^G] [=D=GB]2 | %51
 [CGc][CFc] [CFc]2 | [DFB][D=FB] [D^FB]2 | [C^GB]2 [CFA][C^EG] | [CFc]2 [DFB][C^EB] | %55
 [CFA]2 [Acf]2 | [Gdf]2 [GAe]2 | [FAe]2 [FBf]2 | [GBe]2 [GBce]2 | [F^Ace]2 [Fce]2 | d2 [GBd]2 | %61
 [GB=c]2 [DAc]2 | [DAB]2 [GBe]2 | [GAe]2 [FAB]2 | [FGB]2 [EGe]2 | [Fce]2 [Fd]2 | [EBd]2 [EFc]2 | %67
 [DFB][DGB] [CGB][CF^A] | [DFB]2 [Bf]2 | [^Acf]2 [Bcf][Bd=f] | [Fcf]2 z [F^Ad] | %71
 [^GBd][GBc] [=G=ce]2 | [F=cf][FBf] [FBf]2 | [GBe][G^Ae] [E=Ae][EGe] | [EFc]2 [DFB][CF^A] | %75
 [DFB]2 [CEB][CE^A] | [B,DB]2 [FB]2 | [FGB]2 [EAe]2 | [FAe]2 [FBd]2 | [Ede]2 [Fce]2 | %80
 [Fcd]2 [GBd]2 | [GBe]2 [FB^d]2 | [EBe]3 [FBd] | [^GBd]2 [^EBc]2 | [FBc][G^Ac] z [Fce] | %85
 [Fcd][GBd] [EBc][FAd] | [DAB][EGB] [EG^A][EFA] | [DB][CGB] [CF^A]2 | !fermata![DFB]2 z2 | %89
 z [FBd] [EAe][EAc] | [FBd]2 [GBd][GAc] | [FAd]3 [EBd] | [EAc][FAc] [EAc][EBe] | %93
 [EBe]2 [F=ce][FB^d] | [GBe]2 [A=ce][AB^d] | [GBe]3 [F=ce] | [FB^d]4 | [FA=cf]4 | [GBe]4 | %99
 [FAB^d]4 | [EGBe]3 [^GBe] | [^GBd]2 [DGB]2 | [CFA]2 [FAc]2 | [=FBc]4 | [FAc]2 [FB][FAd] | %105
 [^Gd][EGc] [EAc][EGc] | [Fc][DFB] [D^GB][FGB] | [=F^GB]2 z [CFB] | [CFA]2 z [CFA] | %109
 [D^GB]2 [C=FG][CFB] | [CFA]2 [C^E^G]2 | [CFA]2 [B,FB][DFB] | [D^GB]2 [C=FB]2 | %113
 [C^GA][CFA] z [CGB] | [CFA]2 [^DFA][DFB] | [EGB]2 [EFA][B,FA] | [B,FG][EGB] [EFc][EF^A] | %117
 [DFB]2 [Ec][CE^A] | [B,FB][FBd] z [FBd] | [CF]2 [DFG][DEG] | [EF^A][EFc] [EFc][DFB] | %121
 [D=F^G]2 [DEB][CEB] | [=C^DF]2 [C=DA][B,FA] | [B,FB][B,EB] [=CGB][EGB] | [CE^A][CFA] [DFB][EFA] | %125
 [DFB][FBd] [Gce][Fcf] | [FBd][EBe] [Ace][AB^d] | [GBe]2 [Acf][ABf] | [^GBe][Ace] [FAd][EGd] | %129
 [EAc]2 [FBd][EBd] | [Ac][DAd] [GBd][GAc] | [FAd]2 [GBe][GAe] | [FAd][GBd] [EG=c][DFc] | %133
 [DGB]2 [EA=c][DAc] | [DAB][DGd] [EG=c][DFc] | [DGB]2 [CFA][^DFB] | [EGB]2 [EBe]2 | %137
 [EAe]2 [=FAd]2 | [=FBd]4 | [EA=c]4 | [E^Gd]4 | [EA=c]3 [EA^c] | [EGc]4 | [DFB]4 | [EF^A]4 | %145
 [DFB][FBd] [EBd][EGd] | [EGc][Fc] [DAc][DFc] | [DEB][EB] [CGB][CEB] | [CE^A]2 z [CEFA] | %149
 [B,DFB]2 z [DFGB] | [CEGc]2 [CEG^A]2 | [B,FB][DFB] [CF^A]2 | [B,FB][B,GB] [CGB][CF^A] | %153
 [DFB][EGB] [EGA][DFA] | [DGB][EG=c] [EFc][^DFB] | [B,EG]2 z2 | [EG=c]2 z2 | [EG=c]4 | %158
 !fermata![D^GB]4 | [CF^A]3 [EFA] | [DFB]2 [CFc][CF^A] | [DFB]2 z2 | [CF^A]2 [DGB]2 | %163
 [CF^A]2 [DFB]2 | [D=FB]2 [CEGB]2 | [=C^DFA]2 [B,=DFA]2 | [B,DEG][CEG] z [B,EG] | %167
 [^A,CF]2 [B,DF][CEF] | [B,DF]2 [CEGc][CFc] | [DFB]2 [D^GB]2 | [C^GB]2 [CA]2 | [FAB]2 [C^GB]2 | %172
 [CA][DFA] [DF^G][C=FG] | [CFA][C=FB] [C^FA][FAc] | [=F^Gc]2 [^FAc][Acf] | [^Gc=f]2 z [Acf] | %176
 [Acf]2 z [^GBf] | [^GBe]2 z [FAe] | [FAd]2 z [GBd] | [=F^Gc]2 [GBc]2 | [FAc]2 [FBd][=FBc] | %181
 [FAc]2 [Adf]2 | [Gdf]2 [GAe]2 | [FAe]2 [FBd]2 | [EBd]2 [EFc]2 | [DFc]2 [DGB]2 | [GB=c]2 [DAc]2 | %187
 [DAB]2 [GBe]2 | [GAe]2 [FBf]2 | [GBf][GBe] [Gce]2 | [Fce]2 [FBd]2 | [EGd][EGc] [E^Ac]2 | %192
 [DFc][DFB] [DGB]2 | [D^GB]2 [DGB]2 | [DFB][CF^A] [FAc]2 | [Dcd]2 [EBd]2 | [EBc]2 [FAc]2 | %197
 [B,AB]2 [C^GB]2 | [C^GA]2 [DFA]2 | [DFB]2 [CF^A]2 | [B,FB]3 [CFA] | [^DFA]2 [=CF^G]2 | %202
 [CF^G][C=FG] z [GBc] | [FAc][FAB] [E^GB][EGA] | [DFA][DF^G] [C=FB]2 | [FA][D^GA] [C=FG]2 | %206
 [A,F]2 z2 | z [CFA] [C^Gc][=FGc] | [FAc]4 | [=F^Gc]2 [^Fc][FA=c] | [C^Gc]2 z [C=FA] | %211
 [^DFA][DF^G] [=D=GB]2 | [CGc][CFc] [CFc]2 | [DFB][D=FB] [D^FB]2 | [C^GB]2 [CFA][C=FG] | %215
 [CFc]2 [DFB][C^EB] | [CFA]2 [Acf]2 | [Gdf]2 [GAe]2 | [FAe]2 [FBf]2 | [GBe]2 [GBce]2 | %220
 [F^Ace]2 [Fce]2 | d2 [GBd]2 | [GB=c]2 [DAc]2 | [DAB]2 [GBe]2 | [GAe]2 [FAB]2 | [FGB]2 [EGe]2 | %226
 [Fce]2 [Fd]2 | [EBd]2 [EFc]2 | [DFB][DGB] [CGB][CF^A] | [DFB]2 [Bf]2 | [^Acf]2 [Bcf][Bd^e] | %231
 [Fcf]2 z [F^Ad] | [^GBd][GBc] [=G=ce]2 | [F=cf][FBf] [FBf]2 | [GBe][G^Ae] [E=Ae][EGe] | %235
 [EFc]2 [DFB][CF^A] | [DFB]2 [CEB][CE^A] | [B,DB]2 [FB]2 | [FGB]2 [EAe]2 | [FAe]2 [FBd]2 | %240
 [Ede]2 [Fce]2 | [Fcd]2 [GBd]2 | [GBe]2 [FB^d]2 | [EBe]3 [FBd] | [^GBd]2 [^EBc]2 | %245
 [FBc][G^Ac] z [Fce] | [Fcd][GBd] [EBc][FAd] | [DAB][EGB] [EG^A][EFA] | [DB][CGB] [CF^A]2 | %249
 !fermata![DFB]2 z2 |] %250
V:4
 z | z B,, ^A,,F,, | B,,C, D,B,, | F,E, D,B,, | F,F,, z F, | G,F, E,C, | F,E, ^D,B,, | E,D, C,B,, | %8
 ^A,,/F,,/A,,/C,/ F,/D,/E,/C,/ | D,G, C,F, | B,,C, D,^G,, | A,,D, B,,C, | F,,^G,, A,,F,, | %13
 C,B,, A,,F,, | C,C,, z C, | D,/C,/D, z ^G,, | C,/B,,/C, z F,, | B,,/^A,,/B,, z B, | B,^G, =F,C, | %19
 F,A,, ^G,,C, | F,E, D,C, | B,,3/2C,/4D,/4 C,3/2D,/4E,/4 | D,C, B,,A,, | %23
 ^G,,3/2^A,,/4B,,/4 A,,3/2B,,/4C,/4 | B,,B,/A,/ G,F, | E,3/2F,/4G,/4 F,3/2G,/4A,/4 | G,F, E,D, | %27
 C,3/2^D,/4E,/4 D,3/2E,/4F,/4 | E,/F,/G,/E,/ C,/D,/E,/C,/ | ^A,,/B,,/C,/A,,/ B,,/C,/D,/B,,/ | %30
 C,/D,/E,/C,/ F,/^G,/^A,/F,/ | B,/C/D/B,/ G,/A,/B,/G,/ | =F,=F,, F,,F,, | F,,F,/^G,/ ^A,F, | %34
 B,A, ^G,E, | A,^G, F,=F,/^F,/ | ^G,F, =F,C, | F,E, D,C, | D,B,, E,C, | D,F, D,C, | %40
 =C,^C, ^D,^G,, | C,C,, z =F, | F,D, E,C, | D,B,, ^G,,C,, | D,,B,, C,C,, | F,,2 z2 | z F, ^E,C, | %47
 F,,2 A,,2 | C,2 D,2 | =F,,2 z C, | =C,2 B,,2 | ^A,,2 =A,,2- | A,,^G,, =G,,F,, | %53
 ^E,,^D,,/C,,/ F,,B,, | A,,D, ^G,,C, | F,,^G,, A,,F,, | B,,E, C,A,, | D,F, ^D,B,, | E,G, E,C, | %59
 F,^G, ^A,F, | B,A, G,F, | E,3/2F,/4G,/4 F,3/2G,/4A,/4 | G,F, E,D, | C,3/2^D,/4E,/4 D,3/2E,/4F,/4 | %64
 E,D, C,B,, | ^A,,3/2B,,/4C,/4 B,,3/2C,/4D,/4 | ^G,,3/2^A,,/4B,,/4 A,,3/2B,,/4C,/4 | %67
 B,,G,, E,,F,, | B,,2 D,2 | F,2 G,2 | ^A,,2 z F, | ^E,2 =E,2 | ^D,2 =D,2 | z C, =C,B,, | %74
 ^A,,^G,,/F,,/ B,,E, | D,G, C,F, | B,,C, D,B,, | E,D, C,A,, | D,C, B,,^A,,/B,,/ | C,B,, ^A,,F,, | %80
 B,,A,, G,,F,, | G,,E,, A,,F,, | G,,B,, G,,F,, | ^E,,F,, ^G,,C,, | F,,E, z ^A, | B,G, A,F, | %86
 G,E, C,F,, | G,,E, F,F,, | !fermata!B,,,2 z2 | z B,, C,A,, | D,F, E,A, | D,D/C/ DG,- | %92
 G,/E,/A, A,,G,,/F,,/ | G,,G, A,B, | E,G,, F,,B,, | E,,E,/D,/ E,A,- | A,/F,/B, A,/G,/F,/E,/ | %97
 ^D,D, D,D, | E,E, E,E, | B,,B,, B,,B,, | E,/F,/G,/A,/ B,/C/D | ^E,E, E,E, | F,F, F,F, | %103
 C,C, C,C, | F,/=F,/^F,/D/ D/C/D/F,/ | E,/D,/E,/C/ C/B,/C/E,/ | D,/C,/D,/B,/ B,/A,/B,/D,/ | %107
 C,C,, z C, | D,D,, z D, | =F,,^G,, B,,G,, | A,,F,, B,,^G,, | C,A,, D,B,, | =F,^G, C,F, | %113
 A,,D, ^G,,=F, | F,F,, B,,A,, | G,,=C, F,,^D, | E,G, ^A,,F, | B,,3/2C,/4D,/4 C,3/2D,/4E,/4 | %118
 D,/C,/B,,/^A,,/ B,,/F,/D,/B,,/ | ^A,,/F,,/A,,/C,/ B,,/A,,/B,,/D,/ | %120
 C,/B,,/^A,,/^G,,/ F,,/C,/D,/A,,/ | B,,/^A,,/B,,/G,/ G,/F,/G,/=A,,/ | %122
 A,,/^G,,/A,,/F,/ F,/E,/F,/=G,,/ | G,,/F,,/G,,/E,/ E,/D,/E,/G,,/ | F,,E, D,C, | %125
 B,,/F,/B,- B,/G,/A,- | A,/F,<G, E,/F,/B,/ | E,/^D,<E, C/=D,- | D,/B,<C, A,,/B,,/E,/ | %129
 A,,/E,<A, F,/G,- | G,/E,<F, D,/E,/A,/ | D,/C,<D, B,/=C,- | C,/A,<B,, G,,/A,,/D,/ | %133
 G,,/D,/ G,2 F, | E,G, A,D, | G,,/B,,<E, ^D,/A, | G,A, G,E, | =C,A, =F,D, | ^G,,G,, G,,G,, | %139
 A,,A,, A,,A,, | E,,E,, E,,E,, | A,,/B,,/=C,/D,/ E,/F,/G, | ^A,,A,, A,,A,, | B,,B,, B,,B,, | %144
 F,,F,, F,,F,, | B,,/^A,,/B,,/G,/ G,/F,/G,/B,,/ | A,,/^G,,/A,,/F,/ F,/E,/F,/A,,/ | %147
 G,,/F,,/G,,/E,/ E,/D,/E,/G,,/ | F,,F, z F, | G,,G, z G, | ^A,,C, E,C, | D,B,, E,C, | D,G, E,F, | %153
 B,,E, =C,D, | G,,=C, A,,B,, | E,,2 z2 | E,,2 z2 | z E,, E,,E,, | !fermata!=F,,4 | %159
 F,,F,/G,/ F,/E,/D,/C,/ | D,B,, ^A,,F,, | B,,B,,, z2 | z F,2 E,- | E,F,/E,/ D,B,, | %164
 ^G,,C,3/2 ^D,/E,/C,/ | F,,B,,3/2 C,/D,/B,,/ | E,,E, z E,- | E,/C,/D,/E,/ D,/C,/B,,/^A,,/ | %168
 B,,/F,/ B,2 ^A, | B,A, G,F, | =F,3/2^F,/4^G,/4 F,3/2G,/4A,/4 | ^D,3/2=F,/4^F,/4 =F,3/2^F,/4^G,/4 | %172
 F,D, B,,C, | F,,^G,, A,,F,, | C,B,, A,,F,, | C,C,, z C, | D,/C,/D, z ^G,, | C,/B,,/C, z F,, | %178
 B,,/^A,,/B,, z B, | B,^G, ^E,C, | F,A,, ^G,,C, | F,E, D,C, | B,,3/2C,/4D,/4 C,3/2D,/4E,/4 | %183
 D,C, B,,A,, | ^G,,3/2^A,,/4B,,/4 A,,3/2B,,/4C,/4 | B,,B,/A,/ G,F, | E,3/2F,/4G,/4 F,3/2G,/4A,/4 | %187
 G,F, E,D, | C,3/2^D,/4E,/4 D,3/2E,/4F,/4 | E,/F,/G,/E,/ C,/D,/E,/C,/ | %190
 ^A,,/B,,/C,/A,,/ B,,/C,/D,/B,,/ | C,/D,/E,/C,/ F,/^G,/^A,/F,/ | B,/C/D/B,/ G,/A,/B,/G,/ | %193
 =F,=F,, F,,F,, | F,,F,/^G,/ ^A,F, | B,A, ^G,E, | A,^G, F,=F,/^F,/ | ^G,F, ^E,C, | F,E, D,C, | %199
 D,B,, E,C, | D,F, D,C, | =C,^C, ^D,^G,, | C,C,, z =F, | F,D, E,C, | D,B,, ^G,,C,, | D,,B,, C,C,, | %206
 F,,2 z2 | z F, =F,C, | F,,2 A,,2 | C,2 D,2 | =F,,2 z C, | =C,2 B,,2 | ^A,,2 =A,,2- | %213
 A,,^G,, =G,,F,, | =F,,^D,,/C,,/ ^F,,B,, | A,,D, ^G,,C, | F,,^G,, A,,F,, | B,,E, C,A,, | %218
 D,F, ^D,B,, | E,G, E,C, | F,^G, ^A,F, | B,A, G,F, | E,3/2F,/4G,/4 F,3/2G,/4A,/4 | G,F, E,D, | %224
 C,3/2^D,/4E,/4 D,3/2E,/4F,/4 | E,D, C,B,, | ^A,,3/2B,,/4C,/4 B,,3/2C,/4D,/4 | %227
 ^G,,3/2^A,,/4B,,/4 A,,3/2B,,/4C,/4 | B,,G,, E,,F,, | B,,2 D,2 | F,2 G,2 | ^A,,2 z F, | ^E,2 =E,2 | %233
 ^D,2 =D,2 | z C, =C,B,, | ^A,,^G,,/F,,/ B,,E, | D,G, C,F, | B,,C, D,B,, | E,D, C,A,, | %239
 D,C, B,,^A,,/B,,/ | C,B,, ^A,,F,, | B,,A,, G,,F,, | G,,E,, A,,F,, | G,,B,, G,,F,, | %244
 ^E,,F,, ^G,,C,, | F,,E, z ^A, | B,G, A,F, | G,E, C,F,, | G,,E, F,F,, | !fermata!B,,,2 z2 |] %250

